output/footprints/LKBD_MicroSwitch.pretty/SW_D2FC_OMR.svg

<?xml version="1.0" standalone="no"?>
 <!DOCTYPE svg PUBLIC "-//W3C//DTD SVG 1.1//EN" 
 "http://www.w3.org/Graphics/SVG/1.1/DTD/svg11.dtd"> 
<svg
  xmlns:svg="http://www.w3.org/2000/svg"
  xmlns="http://www.w3.org/2000/svg"
  xmlns:xlink="http://www.w3.org/1999/xlink"
  version="1.1"
  width="13.3350mm" height="10.0838mm" viewBox="0.0000 0.0000 13.3350 10.0838">
<title>SVG Image created as SW_D2FC_OMR.svg date 2025/05/12 22:52:36 </title>
  <desc>Image generated by PCBNEW </desc>
<g style="fill:#000000; fill-opacity:1.0000;stroke:#000000; stroke-opacity:1.0000;
stroke-linecap:round; stroke-linejoin:round;"
 transform="translate(0 0) scale(1 1)">
</g>
<g style="fill:none; 
stroke:#F2EDA1; stroke-width:0.1500; stroke-opacity:1; 
stroke-linecap:round; stroke-linejoin:round;">
<g transform="rotate(-90.000000 9.0750 5.0482)">
<text x="9.0750" y="5.5482"
textLength="4.5357" font-size="1.3333" lengthAdjust="spacingAndGlyphs"
text-anchor="middle" opacity="0" stroke-opacity="0">REF**</text>
</g>
<g class="stroked-text"><desc>REF**</desc>
<path d="M9.5298 6.3816
L9.0536 6.7149
" />
<path d="M9.5298 6.9530
L8.5298 6.9530
" />
<path d="M8.5298 6.9530
L8.5298 6.5721
" />
<path d="M8.5298 6.5721
L8.5774 6.4768
" />
<path d="M8.5774 6.4768
L8.6251 6.4292
" />
<path d="M8.6251 6.4292
L8.7203 6.3816
" />
<path d="M8.7203 6.3816
L8.8632 6.3816
" />
<path d="M8.8632 6.3816
L8.9584 6.4292
" />
<path d="M8.9584 6.4292
L9.0060 6.4768
" />
<path d="M9.0060 6.4768
L9.0536 6.5721
" />
<path d="M9.0536 6.5721
L9.0536 6.9530
" />
<path d="M9.0060 5.9530
L9.0060 5.6197
" />
<path d="M9.5298 5.4768
L9.5298 5.9530
" />
<path d="M9.5298 5.9530
L8.5298 5.9530
" />
<path d="M8.5298 5.9530
L8.5298 5.4768
" />
<path d="M9.0060 4.7149
L9.0060 5.0482
" />
<path d="M9.5298 5.0482
L8.5298 5.0482
" />
<path d="M8.5298 5.0482
L8.5298 4.5721
" />
<path d="M8.5298 4.0482
L8.7679 4.0482
" />
<path d="M8.6727 4.2863
L8.7679 4.0482
" />
<path d="M8.7679 4.0482
L8.6727 3.8102
" />
<path d="M8.9584 4.1911
L8.7679 4.0482
" />
<path d="M8.7679 4.0482
L8.9584 3.9054
" />
<path d="M8.5298 3.2863
L8.7679 3.2863
" />
<path d="M8.6727 3.5244
L8.7679 3.2863
" />
<path d="M8.7679 3.2863
L8.6727 3.0482
" />
<path d="M8.9584 3.4292
L8.7679 3.2863
" />
<path d="M8.7679 3.2863
L8.9584 3.1435
" />
</g></g>
<g style="fill:none; 
stroke:#F2EDA1; stroke-width:0.1200; stroke-opacity:1; 
stroke-linecap:round; stroke-linejoin:round;">
<path d="M0.1750 2.0482
L0.1750 3.0482
" />
<path d="M0.1750 2.0482
L1.1750 2.0482
" />
<path d="M0.1750 8.0482
L0.1750 7.0482
" />
<path d="M0.1750 8.0482
L1.1750 8.0482
" />
<path d="M4.1750 5.9482
L4.1750 4.1482
" />
<path d="M5.2750 5.9482
L5.2750 4.1482
" />
<path d="M13.1750 2.0482
L12.1750 2.0482
" />
<path d="M13.1750 2.0482
L13.1750 3.0482
" />
<path d="M13.1750 8.0482
L12.1750 8.0482
" />
<path d="M13.1750 8.0482
L13.1750 7.0482
" />
<path d="M5.2750 4.1482 A0.5500 0.5500 0.0 0 0 4.1750 4.1482" />
<path d="M4.1750 5.9482 A0.5500 0.5500 0.0 0 0 5.2750 5.9482" />
</g>
<g style="fill:#4D7FC4; fill-opacity:1.0000; stroke:none;">
<circle cx="1.5950" cy="5.0482" r="0.8500" /> 
</g>
<g style="fill:#4D7FC4; fill-opacity:1.0000; stroke:none;">
<circle cx="6.6750" cy="5.0482" r="0.8500" /> 
</g>
<g style="fill:#4D7FC4; fill-opacity:1.0000; stroke:none;">
<circle cx="11.7550" cy="5.0482" r="0.8500" /> 
</g>
<g style="fill:#C83434; fill-opacity:1.0000; stroke:none;">
<circle cx="1.5950" cy="5.0482" r="0.8500" /> 
</g>
<g style="fill:#C83434; fill-opacity:1.0000; stroke:none;">
<circle cx="6.6750" cy="5.0482" r="0.8500" /> 
</g>
<g style="fill:#C83434; fill-opacity:1.0000; stroke:none;">
<circle cx="11.7550" cy="5.0482" r="0.8500" /> 
</g>
<g style="fill:none; 
stroke:#585D84; stroke-width:0.0472; stroke-opacity:1; 
stroke-linecap:round; stroke-linejoin:round;">
<text x="1.5950" y="5.3316"
textLength="0.5680" font-size="0.7556" lengthAdjust="spacingAndGlyphs"
text-anchor="middle" opacity="0" stroke-opacity="0">1</text>
<g class="stroked-text"><desc>1</desc>
<path d="M1.7569 5.3079
L1.4331 5.3079
" />
<path d="M1.5950 5.3079
L1.5950 4.7413
" />
<path d="M1.5950 4.7413
L1.5410 4.8222
" />
<path d="M1.5410 4.8222
L1.4871 4.8762
" />
<path d="M1.4871 4.8762
L1.4331 4.9032
" />
</g></g>
<g style="fill:none; 
stroke:#585D84; stroke-width:0.0212; stroke-opacity:1; 
stroke-linecap:round; stroke-linejoin:round;">
<circle cx="1.5950" cy="5.0482" r="0.8500" /> 
</g>
<g style="fill:none; 
stroke:#585D84; stroke-width:0.0472; stroke-opacity:1; 
stroke-linecap:round; stroke-linejoin:round;">
<text x="6.6750" y="5.3316"
textLength="0.5680" font-size="0.7556" lengthAdjust="spacingAndGlyphs"
text-anchor="middle" opacity="0" stroke-opacity="0">2</text>
<g class="stroked-text"><desc>2</desc>
<path d="M6.5131 4.7952
L6.5401 4.7683
" />
<path d="M6.5401 4.7683
L6.5940 4.7413
" />
<path d="M6.5940 4.7413
L6.7290 4.7413
" />
<path d="M6.7290 4.7413
L6.7829 4.7683
" />
<path d="M6.7829 4.7683
L6.8099 4.7952
" />
<path d="M6.8099 4.7952
L6.8369 4.8492
" />
<path d="M6.8369 4.8492
L6.8369 4.9032
" />
<path d="M6.8369 4.9032
L6.8099 4.9841
" />
<path d="M6.8099 4.9841
L6.4861 5.3079
" />
<path d="M6.4861 5.3079
L6.8369 5.3079
" />
</g></g>
<g style="fill:none; 
stroke:#585D84; stroke-width:0.0212; stroke-opacity:1; 
stroke-linecap:round; stroke-linejoin:round;">
<circle cx="6.6750" cy="5.0482" r="0.8500" /> 
</g>
<g style="fill:none; 
stroke:#585D84; stroke-width:0.0472; stroke-opacity:1; 
stroke-linecap:round; stroke-linejoin:round;">
<text x="11.7550" y="5.3316"
textLength="0.5680" font-size="0.7556" lengthAdjust="spacingAndGlyphs"
text-anchor="middle" opacity="0" stroke-opacity="0">3</text>
<g class="stroked-text"><desc>3</desc>
<path d="M11.5661 4.7413
L11.9169 4.7413
" />
<path d="M11.9169 4.7413
L11.7280 4.9572
" />
<path d="M11.7280 4.9572
L11.8090 4.9572
" />
<path d="M11.8090 4.9572
L11.8629 4.9841
" />
<path d="M11.8629 4.9841
L11.8899 5.0111
" />
<path d="M11.8899 5.0111
L11.9169 5.0651
" />
<path d="M11.9169 5.0651
L11.9169 5.2000
" />
<path d="M11.9169 5.2000
L11.8899 5.2540
" />
<path d="M11.8899 5.2540
L11.8629 5.2810
" />
<path d="M11.8629 5.2810
L11.8090 5.3079
" />
<path d="M11.8090 5.3079
L11.6471 5.3079
" />
<path d="M11.6471 5.3079
L11.5931 5.2810
" />
<path d="M11.5931 5.2810
L11.5661 5.2540
" />
</g></g>
<g style="fill:none; 
stroke:#585D84; stroke-width:0.0212; stroke-opacity:1; 
stroke-linecap:round; stroke-linejoin:round;">
<circle cx="11.7550" cy="5.0482" r="0.8500" /> 
</g>
<g style="fill:none; 
stroke:#AFAFAF; stroke-width:0.1500; stroke-opacity:1; 
stroke-linecap:round; stroke-linejoin:round;">
<text x="6.6750" y="1.3482"
textLength="10.8690" font-size="1.3333" lengthAdjust="spacingAndGlyphs"
text-anchor="middle" opacity="0" stroke-opacity="0">SW_D2FC_OMR</text>
<g class="stroked-text"><desc>SW_D2FC_OMR</desc>
<path d="M1.5560 1.2554
L1.6988 1.3031
" />
<path d="M1.6988 1.3031
L1.9369 1.3031
" />
<path d="M1.9369 1.3031
L2.0321 1.2554
" />
<path d="M2.0321 1.2554
L2.0798 1.2078
" />
<path d="M2.0798 1.2078
L2.1274 1.1126
" />
<path d="M2.1274 1.1126
L2.1274 1.0174
" />
<path d="M2.1274 1.0174
L2.0798 0.9221
" />
<path d="M2.0798 0.9221
L2.0321 0.8745
" />
<path d="M2.0321 0.8745
L1.9369 0.8269
" />
<path d="M1.9369 0.8269
L1.7464 0.7793
" />
<path d="M1.7464 0.7793
L1.6512 0.7316
" />
<path d="M1.6512 0.7316
L1.6036 0.6840
" />
<path d="M1.6036 0.6840
L1.5560 0.5888
" />
<path d="M1.5560 0.5888
L1.5560 0.4935
" />
<path d="M1.5560 0.4935
L1.6036 0.3983
" />
<path d="M1.6036 0.3983
L1.6512 0.3507
" />
<path d="M1.6512 0.3507
L1.7464 0.3031
" />
<path d="M1.7464 0.3031
L1.9845 0.3031
" />
<path d="M1.9845 0.3031
L2.1274 0.3507
" />
<path d="M2.4607 0.3031
L2.6988 1.3031
" />
<path d="M2.6988 1.3031
L2.8893 0.5888
" />
<path d="M2.8893 0.5888
L3.0798 1.3031
" />
<path d="M3.0798 1.3031
L3.3179 0.3031
" />
<path d="M3.4607 1.3983
L4.2226 1.3983
" />
<path d="M4.4607 1.3031
L4.4607 0.3031
" />
<path d="M4.4607 0.3031
L4.6988 0.3031
" />
<path d="M4.6988 0.3031
L4.8417 0.3507
" />
<path d="M4.8417 0.3507
L4.9369 0.4459
" />
<path d="M4.9369 0.4459
L4.9845 0.5412
" />
<path d="M4.9845 0.5412
L5.0321 0.7316
" />
<path d="M5.0321 0.7316
L5.0321 0.8745
" />
<path d="M5.0321 0.8745
L4.9845 1.0650
" />
<path d="M4.9845 1.0650
L4.9369 1.1602
" />
<path d="M4.9369 1.1602
L4.8417 1.2554
" />
<path d="M4.8417 1.2554
L4.6988 1.3031
" />
<path d="M4.6988 1.3031
L4.4607 1.3031
" />
<path d="M5.4131 0.3983
L5.4607 0.3507
" />
<path d="M5.4607 0.3507
L5.5560 0.3031
" />
<path d="M5.5560 0.3031
L5.7940 0.3031
" />
<path d="M5.7940 0.3031
L5.8893 0.3507
" />
<path d="M5.8893 0.3507
L5.9369 0.3983
" />
<path d="M5.9369 0.3983
L5.9845 0.4935
" />
<path d="M5.9845 0.4935
L5.9845 0.5888
" />
<path d="M5.9845 0.5888
L5.9369 0.7316
" />
<path d="M5.9369 0.7316
L5.3655 1.3031
" />
<path d="M5.3655 1.3031
L5.9845 1.3031
" />
<path d="M6.7464 0.7793
L6.4131 0.7793
" />
<path d="M6.4131 1.3031
L6.4131 0.3031
" />
<path d="M6.4131 0.3031
L6.8893 0.3031
" />
<path d="M7.8417 1.2078
L7.7940 1.2554
" />
<path d="M7.7940 1.2554
L7.6512 1.3031
" />
<path d="M7.6512 1.3031
L7.5560 1.3031
" />
<path d="M7.5560 1.3031
L7.4131 1.2554
" />
<path d="M7.4131 1.2554
L7.3179 1.1602
" />
<path d="M7.3179 1.1602
L7.2702 1.0650
" />
<path d="M7.2702 1.0650
L7.2226 0.8745
" />
<path d="M7.2226 0.8745
L7.2226 0.7316
" />
<path d="M7.2226 0.7316
L7.2702 0.5412
" />
<path d="M7.2702 0.5412
L7.3179 0.4459
" />
<path d="M7.3179 0.4459
L7.4131 0.3507
" />
<path d="M7.4131 0.3507
L7.5560 0.3031
" />
<path d="M7.5560 0.3031
L7.6512 0.3031
" />
<path d="M7.6512 0.3031
L7.7940 0.3507
" />
<path d="M7.7940 0.3507
L7.8417 0.3983
" />
<path d="M8.0321 1.3983
L8.7940 1.3983
" />
<path d="M9.2226 0.3031
L9.4131 0.3031
" />
<path d="M9.4131 0.3031
L9.5083 0.3507
" />
<path d="M9.5083 0.3507
L9.6036 0.4459
" />
<path d="M9.6036 0.4459
L9.6512 0.6364
" />
<path d="M9.6512 0.6364
L9.6512 0.9697
" />
<path d="M9.6512 0.9697
L9.6036 1.1602
" />
<path d="M9.6036 1.1602
L9.5083 1.2554
" />
<path d="M9.5083 1.2554
L9.4131 1.3031
" />
<path d="M9.4131 1.3031
L9.2226 1.3031
" />
<path d="M9.2226 1.3031
L9.1274 1.2554
" />
<path d="M9.1274 1.2554
L9.0321 1.1602
" />
<path d="M9.0321 1.1602
L8.9845 0.9697
" />
<path d="M8.9845 0.9697
L8.9845 0.6364
" />
<path d="M8.9845 0.6364
L9.0321 0.4459
" />
<path d="M9.0321 0.4459
L9.1274 0.3507
" />
<path d="M9.1274 0.3507
L9.2226 0.3031
" />
<path d="M10.0798 1.3031
L10.0798 0.3031
" />
<path d="M10.0798 0.3031
L10.4131 1.0174
" />
<path d="M10.4131 1.0174
L10.7464 0.3031
" />
<path d="M10.7464 0.3031
L10.7464 1.3031
" />
<path d="M11.7940 1.3031
L11.4607 0.8269
" />
<path d="M11.2226 1.3031
L11.2226 0.3031
" />
<path d="M11.2226 0.3031
L11.6036 0.3031
" />
<path d="M11.6036 0.3031
L11.6988 0.3507
" />
<path d="M11.6988 0.3507
L11.7464 0.3983
" />
<path d="M11.7464 0.3983
L11.7940 0.4935
" />
<path d="M11.7940 0.4935
L11.7940 0.6364
" />
<path d="M11.7940 0.6364
L11.7464 0.7316
" />
<path d="M11.7464 0.7316
L11.6988 0.7793
" />
<path d="M11.6988 0.7793
L11.6036 0.8269
" />
<path d="M11.6036 0.8269
L11.2226 0.8269
" />
</g><text x="6.6750" y="9.7482"
textLength="4.5357" font-size="1.3333" lengthAdjust="spacingAndGlyphs"
text-anchor="middle" opacity="0" stroke-opacity="0">REF**</text>
<g class="stroked-text"><desc>REF**</desc>
<path d="M5.3417 9.7031
L5.0083 9.2269
" />
<path d="M4.7702 9.7031
L4.7702 8.7031
" />
<path d="M4.7702 8.7031
L5.1512 8.7031
" />
<path d="M5.1512 8.7031
L5.2464 8.7507
" />
<path d="M5.2464 8.7507
L5.2940 8.7983
" />
<path d="M5.2940 8.7983
L5.3417 8.8935
" />
<path d="M5.3417 8.8935
L5.3417 9.0364
" />
<path d="M5.3417 9.0364
L5.2940 9.1316
" />
<path d="M5.2940 9.1316
L5.2464 9.1793
" />
<path d="M5.2464 9.1793
L5.1512 9.2269
" />
<path d="M5.1512 9.2269
L4.7702 9.2269
" />
<path d="M5.7702 9.1793
L6.1036 9.1793
" />
<path d="M6.2464 9.7031
L5.7702 9.7031
" />
<path d="M5.7702 9.7031
L5.7702 8.7031
" />
<path d="M5.7702 8.7031
L6.2464 8.7031
" />
<path d="M7.0083 9.1793
L6.6750 9.1793
" />
<path d="M6.6750 9.7031
L6.6750 8.7031
" />
<path d="M6.6750 8.7031
L7.1512 8.7031
" />
<path d="M7.6750 8.7031
L7.6750 8.9412
" />
<path d="M7.4369 8.8459
L7.6750 8.9412
" />
<path d="M7.6750 8.9412
L7.9131 8.8459
" />
<path d="M7.5321 9.1316
L7.6750 8.9412
" />
<path d="M7.6750 8.9412
L7.8179 9.1316
" />
<path d="M8.4369 8.7031
L8.4369 8.9412
" />
<path d="M8.1988 8.8459
L8.4369 8.9412
" />
<path d="M8.4369 8.9412
L8.6750 8.8459
" />
<path d="M8.2940 9.1316
L8.4369 8.9412
" />
<path d="M8.4369 8.9412
L8.5798 9.1316
" />
</g><path style="fill:none; 
stroke:#AFAFAF; stroke-width:0.1000; stroke-opacity:1; 
stroke-linecap:round; stroke-linejoin:round;fill:none"
d="M 0.2750,2.1482
13.0750,2.1482
13.0750,7.9482
0.2750,7.9482
Z" /> 
</g>
<g style="fill:none; 
stroke:#AFAFAF; stroke-width:0.0472; stroke-opacity:1; 
stroke-linecap:round; stroke-linejoin:round;">
<text x="1.5950" y="5.3316"
textLength="0.5680" font-size="0.7556" lengthAdjust="spacingAndGlyphs"
text-anchor="middle" opacity="0" stroke-opacity="0">1</text>
<g class="stroked-text"><desc>1</desc>
<path d="M1.7569 5.3079
L1.4331 5.3079
" />
<path d="M1.5950 5.3079
L1.5950 4.7413
" />
<path d="M1.5950 4.7413
L1.5410 4.8222
" />
<path d="M1.5410 4.8222
L1.4871 4.8762
" />
<path d="M1.4871 4.8762
L1.4331 4.9032
" />
</g></g>
<g style="fill:none; 
stroke:#AFAFAF; stroke-width:0.0212; stroke-opacity:1; 
stroke-linecap:round; stroke-linejoin:round;">
<circle cx="1.5950" cy="5.0482" r="0.8500" /> 
</g>
<g style="fill:none; 
stroke:#AFAFAF; stroke-width:0.0472; stroke-opacity:1; 
stroke-linecap:round; stroke-linejoin:round;">
<text x="6.6750" y="5.3316"
textLength="0.5680" font-size="0.7556" lengthAdjust="spacingAndGlyphs"
text-anchor="middle" opacity="0" stroke-opacity="0">2</text>
<g class="stroked-text"><desc>2</desc>
<path d="M6.5131 4.7952
L6.5401 4.7683
" />
<path d="M6.5401 4.7683
L6.5940 4.7413
" />
<path d="M6.5940 4.7413
L6.7290 4.7413
" />
<path d="M6.7290 4.7413
L6.7829 4.7683
" />
<path d="M6.7829 4.7683
L6.8099 4.7952
" />
<path d="M6.8099 4.7952
L6.8369 4.8492
" />
<path d="M6.8369 4.8492
L6.8369 4.9032
" />
<path d="M6.8369 4.9032
L6.8099 4.9841
" />
<path d="M6.8099 4.9841
L6.4861 5.3079
" />
<path d="M6.4861 5.3079
L6.8369 5.3079
" />
</g></g>
<g style="fill:none; 
stroke:#AFAFAF; stroke-width:0.0212; stroke-opacity:1; 
stroke-linecap:round; stroke-linejoin:round;">
<circle cx="6.6750" cy="5.0482" r="0.8500" /> 
</g>
<g style="fill:none; 
stroke:#AFAFAF; stroke-width:0.0472; stroke-opacity:1; 
stroke-linecap:round; stroke-linejoin:round;">
<text x="11.7550" y="5.3316"
textLength="0.5680" font-size="0.7556" lengthAdjust="spacingAndGlyphs"
text-anchor="middle" opacity="0" stroke-opacity="0">3</text>
<g class="stroked-text"><desc>3</desc>
<path d="M11.5661 4.7413
L11.9169 4.7413
" />
<path d="M11.9169 4.7413
L11.7280 4.9572
" />
<path d="M11.7280 4.9572
L11.8090 4.9572
" />
<path d="M11.8090 4.9572
L11.8629 4.9841
" />
<path d="M11.8629 4.9841
L11.8899 5.0111
" />
<path d="M11.8899 5.0111
L11.9169 5.0651
" />
<path d="M11.9169 5.0651
L11.9169 5.2000
" />
<path d="M11.9169 5.2000
L11.8899 5.2540
" />
<path d="M11.8899 5.2540
L11.8629 5.2810
" />
<path d="M11.8629 5.2810
L11.8090 5.3079
" />
<path d="M11.8090 5.3079
L11.6471 5.3079
" />
<path d="M11.6471 5.3079
L11.5931 5.2810
" />
<path d="M11.5931 5.2810
L11.5661 5.2540
" />
</g></g>
<g style="fill:none; 
stroke:#AFAFAF; stroke-width:0.0212; stroke-opacity:1; 
stroke-linecap:round; stroke-linejoin:round;">
<circle cx="11.7550" cy="5.0482" r="0.8500" /> 
</g>
<g style="fill:none; 
stroke:#C2C2C2; stroke-width:0.1200; stroke-opacity:1; 
stroke-linecap:round; stroke-linejoin:round;">
<path d="M4.7250 6.4982
L4.7250 3.5982
" />
<path d="M5.2750 5.0482
L4.1750 5.0482
" />
</g> 
</svg>

<svg xmlns="http://www.w3.org/2000/svg" width="50.4" height="38.112" viewBox="0 0 13.335 10.084">
    <g style="fill:none;stroke:#f2eda1;stroke-width:.15;stroke-opacity:1;stroke-linecap:round;stroke-linejoin:round">
        <g class="stroked-text">
            <path d="m9.53 6.382-.476.333M9.53 6.953h-1M8.53 6.953v-.38M8.53 6.572l.047-.095M8.577 6.477l.048-.048M8.625 6.43l.095-.048M8.72 6.382h.143M8.863 6.382l.095.047M8.958 6.43l.048.047M9.006 6.477l.048.095M9.054 6.572v.381M9.006 5.953V5.62M9.53 5.477v.476M9.53 5.953h-1M8.53 5.953v-.476M9.006 4.715v.333M9.53 5.048h-1M8.53 5.048v-.476M8.53 4.048h.238M8.673 4.286l.095-.238M8.768 4.048l-.095-.238M8.958 4.191l-.19-.143M8.768 4.048l.19-.143M8.53 3.286h.238M8.673 3.524l.095-.238M8.768 3.286l-.095-.238M8.958 3.43l-.19-.144M8.768 3.286l.19-.143"/>
        </g>
    </g>
    <g style="fill:none;stroke:#f2eda1;stroke-width:.12;stroke-opacity:1;stroke-linecap:round;stroke-linejoin:round">
        <path d="M.175 2.048v1M.175 2.048h1M.175 8.048v-1M.175 8.048h1M4.175 5.948v-1.8M5.275 5.948v-1.8M13.175 2.048h-1M13.175 2.048v1M13.175 8.048h-1M13.175 8.048v-1M5.275 4.148a.55.55 0 0 0-1.1 0M4.175 5.948a.55.55 0 0 0 1.1 0"/>
    </g>
    <circle cx="1.595" cy="5.048" r=".85" style="fill:#4d7fc4;fill-opacity:1;stroke:none"/>
    <circle cx="6.675" cy="5.048" r=".85" style="fill:#4d7fc4;fill-opacity:1;stroke:none"/>
    <circle cx="11.755" cy="5.048" r=".85" style="fill:#4d7fc4;fill-opacity:1;stroke:none"/>
    <circle cx="1.595" cy="5.048" r=".85" style="fill:#c83434;fill-opacity:1;stroke:none"/>
    <circle cx="6.675" cy="5.048" r=".85" style="fill:#c83434;fill-opacity:1;stroke:none"/>
    <circle cx="11.755" cy="5.048" r=".85" style="fill:#c83434;fill-opacity:1;stroke:none"/>
    <g class="stroked-text" style="fill:none;stroke:#585d84;stroke-width:.0472;stroke-opacity:1;stroke-linecap:round;stroke-linejoin:round">
        <path d="M1.757 5.308h-.324M1.595 5.308V4.74M1.595 4.741l-.054.081M1.541 4.822l-.054.054M1.487 4.876l-.054.027"/>
    </g>
    <circle cx="1.595" cy="5.048" r=".85" style="fill:none;stroke:#585d84;stroke-width:.0212;stroke-opacity:1;stroke-linecap:round;stroke-linejoin:round"/>
    <g class="stroked-text" style="fill:none;stroke:#585d84;stroke-width:.0472;stroke-opacity:1;stroke-linecap:round;stroke-linejoin:round">
        <path d="m6.513 4.795.027-.027M6.54 4.768l.054-.027M6.594 4.741h.135M6.729 4.741l.054.027M6.783 4.768l.027.027M6.81 4.795l.027.054M6.837 4.85v.053M6.837 4.903l-.027.081M6.81 4.984l-.324.324M6.486 5.308h.35"/>
    </g>
    <circle cx="6.675" cy="5.048" r=".85" style="fill:none;stroke:#585d84;stroke-width:.0212;stroke-opacity:1;stroke-linecap:round;stroke-linejoin:round"/>
    <g class="stroked-text" style="fill:none;stroke:#585d84;stroke-width:.0472;stroke-opacity:1;stroke-linecap:round;stroke-linejoin:round">
        <path d="M11.566 4.741h.35M11.917 4.741l-.189.216M11.728 4.957h.081M11.809 4.957l.054.027M11.863 4.984l.027.027M11.89 5.011l.027.054M11.917 5.065V5.2M11.917 5.2l-.027.054M11.89 5.254l-.027.027M11.863 5.281l-.054.027M11.809 5.308h-.162M11.647 5.308l-.054-.027M11.593 5.281l-.027-.027"/>
    </g>
    <circle cx="11.755" cy="5.048" r=".85" style="fill:none;stroke:#585d84;stroke-width:.0212;stroke-opacity:1;stroke-linecap:round;stroke-linejoin:round"/>
    <g style="fill:none;stroke:#afafaf;stroke-width:.15;stroke-opacity:1;stroke-linecap:round;stroke-linejoin:round">
        <g class="stroked-text">
            <path d="m1.556 1.255.143.048M1.699 1.303h.238M1.937 1.303l.095-.048M2.032 1.255l.048-.047M2.08 1.208l.047-.095M2.127 1.113v-.096M2.127 1.017 2.08.922M2.08.922 2.032.875M2.032.875 1.937.827M1.937.827l-.19-.048M1.746.78 1.651.731M1.651.732 1.604.684M1.604.684 1.556.589M1.556.589V.494M1.556.494l.048-.096M1.604.398 1.65.351M1.651.35l.095-.047M1.746.303h.238M1.985.303l.142.048M2.46.303l.239 1M2.699 1.303l.19-.714M2.89.589l.19.714M3.08 1.303l.238-1M3.46 1.398h.763M4.46 1.303v-1M4.46.303H4.7M4.699.303l.143.048M4.842.35l.095.096M4.937.446l.047.095M4.985.541l.047.19M5.032.732v.143M5.032.875l-.048.19M4.985 1.065l-.048.095M4.937 1.16l-.095.095M4.842 1.255l-.143.048M4.699 1.303H4.46M5.413.398l.048-.047M5.46.35l.096-.047M5.556.303h.238M5.794.303l.095.048M5.89.35l.047.048M5.937.398l.047.095M5.985.494v.095M5.985.589l-.048.143M5.937.732l-.572.571M5.366 1.303h.619M6.746.78h-.333M6.413 1.303v-1M6.413.303h.476M7.842 1.208l-.048.047M7.794 1.255l-.143.048M7.651 1.303h-.095M7.556 1.303l-.143-.048M7.413 1.255l-.095-.095M7.318 1.16l-.048-.095M7.27 1.065l-.047-.19M7.223.875V.732M7.223.732l.047-.19M7.27.541l.048-.095M7.318.446 7.413.35M7.413.35l.143-.047M7.556.303h.095M7.651.303l.143.048M7.794.35l.048.048M8.032 1.398h.762M9.223.303h.19M9.413.303l.095.048M9.508.35l.096.096M9.604.446l.047.19M9.651.636V.97M9.651.97l-.047.19M9.604 1.16l-.096.095M9.508 1.255l-.095.048M9.413 1.303h-.19M9.223 1.303l-.096-.048M9.127 1.255l-.095-.095M9.032 1.16 8.985.97M8.985.97V.636M8.985.636l.047-.19M9.032.446 9.127.35M9.127.35l.096-.047M10.08 1.303v-1M10.08.303l.333.714M10.413 1.017l.333-.714M10.746.303v1M11.794 1.303l-.333-.476M11.223 1.303v-1M11.223.303h.38M11.604.303l.095.048M11.699.35l.047.048M11.746.398l.048.095M11.794.494v.142M11.794.636l-.048.096M11.746.732 11.7.779M11.699.78l-.095.047M11.604.827h-.381"/>
        </g>
        <g class="stroked-text">
            <path d="m5.342 9.703-.334-.476M4.77 9.703v-1M4.77 8.703h.381M5.151 8.703l.095.048M5.246 8.75l.048.048M5.294 8.798l.048.095M5.342 8.894v.142M5.342 9.036l-.048.096M5.294 9.132l-.048.047M5.246 9.18l-.095.047M5.151 9.227h-.38M5.77 9.18h.334M6.246 9.703H5.77M5.77 9.703v-1M5.77 8.703h.476M7.008 9.18h-.333M6.675 9.703v-1M6.675 8.703h.476M7.675 8.703v.238M7.437 8.846l.238.095M7.675 8.941l.238-.095M7.532 9.132l.143-.19M7.675 8.941l.143.19M8.437 8.703v.238M8.199 8.846l.238.095M8.437 8.941l.238-.095M8.294 9.132l.143-.19M8.437 8.941l.143.19"/>
        </g>
        <path d="M.275 2.148h12.8v5.8H.275Z" style="stroke:#afafaf;stroke-width:.1;stroke-opacity:1;stroke-linecap:round;stroke-linejoin:round;fill:none"/>
    </g>
    <g class="stroked-text" style="fill:none;stroke:#afafaf;stroke-width:.0472;stroke-opacity:1;stroke-linecap:round;stroke-linejoin:round">
        <path d="M1.757 5.308h-.324M1.595 5.308V4.74M1.595 4.741l-.054.081M1.541 4.822l-.054.054M1.487 4.876l-.054.027"/>
    </g>
    <circle cx="1.595" cy="5.048" r=".85" style="fill:none;stroke:#afafaf;stroke-width:.0212;stroke-opacity:1;stroke-linecap:round;stroke-linejoin:round"/>
    <g class="stroked-text" style="fill:none;stroke:#afafaf;stroke-width:.0472;stroke-opacity:1;stroke-linecap:round;stroke-linejoin:round">
        <path d="m6.513 4.795.027-.027M6.54 4.768l.054-.027M6.594 4.741h.135M6.729 4.741l.054.027M6.783 4.768l.027.027M6.81 4.795l.027.054M6.837 4.85v.053M6.837 4.903l-.027.081M6.81 4.984l-.324.324M6.486 5.308h.35"/>
    </g>
    <circle cx="6.675" cy="5.048" r=".85" style="fill:none;stroke:#afafaf;stroke-width:.0212;stroke-opacity:1;stroke-linecap:round;stroke-linejoin:round"/>
    <g class="stroked-text" style="fill:none;stroke:#afafaf;stroke-width:.0472;stroke-opacity:1;stroke-linecap:round;stroke-linejoin:round">
        <path d="M11.566 4.741h.35M11.917 4.741l-.189.216M11.728 4.957h.081M11.809 4.957l.054.027M11.863 4.984l.027.027M11.89 5.011l.027.054M11.917 5.065V5.2M11.917 5.2l-.027.054M11.89 5.254l-.027.027M11.863 5.281l-.054.027M11.809 5.308h-.162M11.647 5.308l-.054-.027M11.593 5.281l-.027-.027"/>
    </g>
    <circle cx="11.755" cy="5.048" r=".85" style="fill:none;stroke:#afafaf;stroke-width:.0212;stroke-opacity:1;stroke-linecap:round;stroke-linejoin:round"/>
    <g style="fill:none;stroke:#c2c2c2;stroke-width:.12;stroke-opacity:1;stroke-linecap:round;stroke-linejoin:round">
        <path d="M4.725 6.498v-2.9M5.275 5.048h-1.1"/>
    </g>
</svg>
